X:1
T:Title
%%score { ( 1 3 ) | 2 }
L:1/8
M:4/4
K:F
V:1 treble nm="Grand Piano"
V:3 treble 
V:2 bass 
V:1
 z4 z2 z[Q:1/4=100] C | FFFG AAAB | cdcA [Ec]4 | [FA][EG][DF][DG] [EA] [EA]2 [EG] | F6 z C | %5
 FFFG AAAB | cdcA [Ec]4 | [FA][G,EG][A,DF][B,DG] [CEA] [CEA]2 [B,EG] |[M:3/4] [A,F]6 | %9
[M:1/4] [FAc]2 |[M:4/4] [FBd][FBd][FBd][FBd] [Fdf]2 [Fce][FBd] | [Bd] [Ac]2 [FA] [Fc]4 | z4 [GB]4 | %13
 [CGB][CFA][CFA][CGB] [FAc]3 [A,F] | [Fd][Fd][Fd][Fd] [Ff]2 [Fe][Fd] | d c2 A [Ec]4 | %16
 [FA][EG][DF][EG] [EA] [EA]2 [EG] |[M:7/8] [A,F]-[A,F]-[A,F]- [A,F]3 z |] %18
V:2
 z4 z2 z [F,A,] | [F,A,C][F,A,C][F,A,C][F,B,C] [F,CF][F,CF][F,CF][F,DF] | %2
 [F,A,F][F,B,F][F,A,F][F,F] [C,G,]4 | [D,F,][D,G,][D,A,][D,B,] [C,C] [C,C]2 [C,B,] | %4
 [F,A,]6 z [F,A,] | [F,A,C][F,A,C][F,A,C][F,B,C] [F,CF][F,CF][F,CF][F,DF] | %6
 [F,A,F][F,B,F][F,A,F][F,F] [C,G,]4 | [D,F,]D,D,D, C, C,2 C, |[M:3/4] F,6 |[M:1/4] F,2 | %10
[M:4/4] B,B,B,B, B,2 B,B, | [F,F] [F,F]2 [F,C] [F,A,]4 | [C,G,][C,C][C,C][C,C] [C,C]2 C,2 | %13
 F,F,F,F, F,3 F, | [B,,B,][B,,B,][B,,B,][B,,B,] [B,,D]2 [B,,C][D,B,] | %15
 [F,B,F] [F,A,F]2 [F,F] [C,G,]4 | [D,F,][D,G,][D,A,][D,B,] [C,C] [C,C]2 [C,B,] | %17
[M:7/8] [F,,F,]-[F,,F,]-[F,,F,]- [F,,F,]3 z |] %18
V:3
 x8 | x8 | x8 | x8 | x8 | x8 | x8 | x8 |[M:3/4] x6 |[M:1/4] x2 |[M:4/4] x8 | x8 | %12
 [Ec][EG][EG][FA] z2 C2 | x8 | x8 | x8 | x8 |[M:7/8] x7 |] %18

